X: 1
T: The Red Haired Boy
R: reel
M: 4/4
L: 1/8
K: Amix
|:"A"EAAG ABcd|efec "D"d2 cd|"A"eAAA ABcA|"G"B=GEF "G"G2 FG|
"A"EAAG ABcd|efec "D"d2 cd|"A"eaaa afed|cA"E"BG "A"A4 :|
|: "G"g2 g"G"a gfef|gfec "D"d2 cd|"A"eAAA ABcA|"G"B=GEF G2 FG|
"A"EAAG ABcd|efec "D"d2 cd|"A"eaaa afed|cA"E"BG "A"A4 :|


Tune 566	Setting 13543

